resources/icons/20px/add-to-folder.svg

<?xml version="1.0" encoding="UTF-8"?>
<svg width="20px" height="20px" viewBox="0 0 20 20" version="1.1" xmlns="http://www.w3.org/2000/svg" xmlns:xlink="http://www.w3.org/1999/xlink">
    <!-- Generator: Sketch 49.1 (51147) - http://www.bohemiancoding.com/sketch -->
    <title>Artboard 3</title>
    <desc>Created with Sketch.</desc>
    <defs></defs>
    <g id="Artboard-3" stroke="none" stroke-width="1" fill="none" fill-rule="evenodd">
        <path d="M0.0099950025,10 L0.0099950025,6 L20,6 L20,16 C20,16.55 19.5502249,17 19.0004998,17 L9.9950025,17 L9.9950025,13.01 C9.96536613,11.3316776 8.63435402,10 6.98650675,10 L1.9890055,10 L0.0099950025,10 Z M19.0004998,3 C19.5502249,3 20,3.45 19.990005,4 L19.9901684,5 L0,5 L0,2 C0,1.45 0.449775112,1 0.99950025,1 L6.99650175,1 C7.27636182,1 7.52623688,1.11 7.70614693,1.29 L9.41529235,3 L19.0004998,3 Z M6.98650675,12 C7.53623188,12 7.986007,12.45 7.996002,13.01 L7.996002,18.01 C7.996002,18.56 7.54622689,19.01 6.99650175,19.01 C6.44677661,19.01 5.9970015,18.56 5.9970015,18.01 L5.9970015,15.42 L1.70914543,19.71 C1.52923538,19.89 1.27936032,20 0.99950025,20 C0.449775112,20 0,19.55 0,19 C0,18.72 0.109945027,18.47 0.289855072,18.29 L4.57771114,14 L1.9890055,14 C1.43928036,14 0.989505247,13.55 0.989505247,13 C0.989505247,12.45 1.43928036,12 1.9890055,12 L6.98650675,12 Z" id="Combined-Shape" fill="#000000"></path>
    </g>
</svg>

<svg xmlns="http://www.w3.org/2000/svg" viewBox="0 0 20 20">
  <path d="M.01 10V6H20v10c0 .55-.45 1-1 1H9.995v-3.99C9.965 11.332 8.635 10 6.987 10H.01M19 3c.55 0 1 .45.99 1v1H0V2c0-.55.45-1 1-1h5.997c.28 0 .53.11.71.29L9.414 3zM6.987 12c.55 0 .999.45 1.009 1.01v5c0 .55-.45 1-1 1s-.999-.45-.999-1v-2.59l-4.288 4.29a1.003 1.003 0 0 1-1.42-1.42L4.579 14H1.989c-.55 0-1-.45-1-1s.45-1 1-1z"/>
</svg>
